X:1
T:Nevis, 87.87.77.87
T:Nevis, 87.87.77.87
T:Z. T. Greene, 1913
T:Public Domain Courtesy of the Cyber Hymnal™
C:Z. T. Greene, 1913
Z:Public Domain
Z:Courtesy of the Cyber Hymnal™
%%score ( 1 2 ) ( 3 4 )
L:1/8
Q:1/4=100
M:4/4
K:Ab
V:1 treble 
V:2 treble 
V:3 bass 
V:4 bass 
V:1
 [CE]>[CE] [CE]>[DF] [EA]2 [EA]2 | [Ec]4 [CA]4 | [DA]2 [DA]2 [DA]>[DB] [DA]>[DF] | [CE]6 z2 | %4
 [CE]>[CE] [CE]>[DF] [EA]2 [EA]2 | [Ec]4 [CA]4 | [Ac]>[Ac] [Ac]>[FB] [EA]2 [EB]2 | [EA]6 z2 | %8
 [EA]>[EA] [Ec]>[Ec] [Ae]2 [Af]2 | e6 [Ae]2 z2 | [Ec]>[Ec] [Ec]>[EB] [EA]2 [Ec]2 | B6 z2 | %12
 [CE]>[CE] [CE]>[DF] [EA]2 [EA]2 | [Ec]4 [CA]4 | [Ac]>[Ac] [Ac]>[FB] [EA]2 [EB]2 | [EA]6 z2 |] %16
V:2
 x8 | x8 | x8 | x8 | x8 | x8 | x8 | x8 | x8 | A2 EG x6 | x8 | (E2 =DD E2) x2 | x8 | x8 | x8 | x8 |] %16
V:3
 [A,,A,]>[A,,A,] [A,,A,]>[A,,A,] [A,,C]2 [A,,C]2 | [A,,A,]4 [A,,E,]4 | %2
 [D,F,]2 [D,F,]2 [D,F,]>[D,F,] [D,F,]>[D,A,] | [A,,A,]6 z2 | %4
 [A,,A,]>[A,,A,] [A,,A,]>[A,,A,] [A,,C]2 [A,,C]2 | [A,,A,]4 [A,,E,]4 | %6
 [A,E]>[A,E] [A,E]>[D,D] [E,C]2 [E,D]2 | [A,,C]6 z2 | [A,C]>[A,C] A,>A, [A,C]2 [A,D]2 | %9
 ([A,C]2 [C,A,][E,D] [A,C]2) z2 x2 | [A,,A,]>[A,,A,] [A,,A,]>[B,,G,] [C,A,]2 [A,,A,]2 | %11
 ([E,G,]2 [B,,F,][B,,F,] [E,G,]2) z2 | [A,,A,]>[A,,A,] [A,,A,]>[A,,A,] [A,,C]2 [A,,C]2 | %13
 [A,,A,]4 [A,,E,]4 | [A,E]>[A,E] [A,E]>[D,D] [E,C]2 [E,D]2 | [A,,C]6 z2 |] %16
V:4
 x8 | x8 | x8 | x8 | x8 | x8 | x8 | x8 | x2 A,>A, x4 | x10 | x8 | x8 | x8 | x8 | x8 | x8 |] %16

